X:463
T: Alima 
N: C2081
O: China,Qinghai Xunhua
S: I, 237]
N: Salazu
R: Xiaodiao, Qingge]
M: 3/8
L: 1/16
K: Eb
B2c2efecef- | f6c2
B2c2e2 | e4fe | c2z4 |
c3eG2 | F4F2 | B4c2 | B6- | B4
c2 | B2c2c2 | e4fe | c2f2g2 | c3eGG | FFF2F2F2F2 | B4c2 | B6- | B4
c2 | B2c2c2 | e4f2 | c2f2g2 | c3eG2 | F6 | B4ce | B4
zB | c6 | z4(3ccc | c3eG2 | F4zF | B2A2B2 | B4c2 | B6- | B6

@@@ Tune index: 7018
